X:185
T:Stone Mills Hornpipe
R:hp
C:Bruce Osborne - Feb. 2002
Z:abc by bosborne@kos.net
M:4/4
L:1/8
K:D
FG|AFDF AFDF|BAFB AFDF|EDEF GBAG|FEFG A2 FG|\
AFDF AFDF|BAFB AFDF|EDEF GBAG|FDEC D2:|
|:FG|AFBF dFBF|AFBF AFDF|EDEF GECE|DCDE F2 FG|\
AFBF dFBF|AFBF AFDF|EDEF GECE|DCDE D2:|
